styles/1/Numix-Circle/48x48/apps/gnome-commander.svg

<?xml version="1.0" encoding="UTF-8" standalone="no"?>
<svg
   xmlns:dc="http://purl.org/dc/elements/1.1/"
   xmlns:cc="http://creativecommons.org/ns#"
   xmlns:rdf="http://www.w3.org/1999/02/22-rdf-syntax-ns#"
   xmlns:svg="http://www.w3.org/2000/svg"
   xmlns="http://www.w3.org/2000/svg"
   xmlns:sodipodi="http://sodipodi.sourceforge.net/DTD/sodipodi-0.dtd"
   xmlns:inkscape="http://www.inkscape.org/namespaces/inkscape"
   viewBox="0 0 48 48"
   id="svg2"
   version="1.1"
   inkscape:version="0.91 r"
   width="100%"
   height="100%"
   sodipodi:docname="gnome-commander.svg">
  <metadata
     id="metadata69">
    <rdf:RDF>
      <cc:Work
         rdf:about="">
        <dc:format>image/svg+xml</dc:format>
        <dc:type
           rdf:resource="http://purl.org/dc/dcmitype/StillImage" />
      </cc:Work>
    </rdf:RDF>
  </metadata>
  <sodipodi:namedview
     pagecolor="#ffffff"
     bordercolor="#666666"
     borderopacity="1"
     objecttolerance="10"
     gridtolerance="10"
     guidetolerance="10"
     inkscape:pageopacity="0"
     inkscape:pageshadow="2"
     inkscape:window-width="1280"
     inkscape:window-height="998"
     id="namedview67"
     showgrid="true"
     showguides="true"
     inkscape:guide-bbox="true"
     inkscape:zoom="5.6568543"
     inkscape:cx="-9.5513159"
     inkscape:cy="15.079128"
     inkscape:window-x="0"
     inkscape:window-y="0"
     inkscape:window-maximized="1"
     inkscape:current-layer="svg2">
    <inkscape:grid
       type="xygrid"
       id="grid3046" />
  </sodipodi:namedview>
  <defs
     id="defs4">
    <linearGradient
       id="linearGradient3764"
       x1="1"
       x2="47"
       gradientUnits="userSpaceOnUse"
       gradientTransform="matrix(0,-1,1,0,-1.5e-6,47.999998)">
      <stop
         stop-color="#428ac2"
         stop-opacity="1"
         id="stop7" />
      <stop
         offset="1"
         stop-color="#5295c7"
         stop-opacity="1"
         id="stop9" />
    </linearGradient>
  </defs>
  <g
     id="g21">
    <path
       d="m 36.31 5 c 5.859 4.062 9.688 10.831 9.688 18.5 c 0 12.426 -10.07 22.5 -22.5 22.5 c -7.669 0 -14.438 -3.828 -18.5 -9.688 c 1.037 1.822 2.306 3.499 3.781 4.969 c 4.085 3.712 9.514 5.969 15.469 5.969 c 12.703 0 23 -10.298 23 -23 c 0 -5.954 -2.256 -11.384 -5.969 -15.469 c -1.469 -1.475 -3.147 -2.744 -4.969 -3.781 z m 4.969 3.781 c 3.854 4.113 6.219 9.637 6.219 15.719 c 0 12.703 -10.297 23 -23 23 c -6.081 0 -11.606 -2.364 -15.719 -6.219 c 4.16 4.144 9.883 6.719 16.219 6.719 c 12.703 0 23 -10.298 23 -23 c 0 -6.335 -2.575 -12.06 -6.719 -16.219 z"
       opacity="0.05"
       id="path23" />
    <path
       d="m 41.28 8.781 c 3.712 4.085 5.969 9.514 5.969 15.469 c 0 12.703 -10.297 23 -23 23 c -5.954 0 -11.384 -2.256 -15.469 -5.969 c 4.113 3.854 9.637 6.219 15.719 6.219 c 12.703 0 23 -10.298 23 -23 c 0 -6.081 -2.364 -11.606 -6.219 -15.719 z"
       opacity="0.1"
       id="path25" />
    <path
       d="m 31.25 2.375 c 8.615 3.154 14.75 11.417 14.75 21.13 c 0 12.426 -10.07 22.5 -22.5 22.5 c -9.708 0 -17.971 -6.135 -21.12 -14.75 a 23 23 0 0 0 44.875 -7 a 23 23 0 0 0 -16 -21.875 z"
       opacity="0.2"
       id="path27" />
  </g>
  <path
     inkscape:connector-curvature="0"
     style="opacity:0.1;fill:#000000;fill-opacity:1;fill-rule:nonzero;stroke:none"
     d="m 13.812518,16 c -0.440926,0.05099 -0.8155,0.464595 -0.8125,0.9375 l 0,17.09375 C 13.000076,34.53115 13.434347,35 13.906268,35 l 22.093749,0 c 0.472925,0 1.000003,-0.5001 1.000003,-1 l 0,-15 c 0,-0.4999 -0.527078,-1 -1.000003,-1 l -9,0 0,-1 c -0.0013,-0.64787 -0.44909,-1 -0.999999,-1 z"
     id="path45"
     sodipodi:nodetypes="cccsssssccsc" />
  <g
     id="g29">
    <path
       d="m 24 1 c 12.703 0 23 10.297 23 23 c 0 12.703 -10.297 23 -23 23 -12.703 0 -23 -10.297 -23 -23 0 -12.703 10.297 -23 23 -23 z"
       fill="url(#linearGradient3764)"
       fill-opacity="1"
       id="path31" />
  </g>
  <g
     id="g33" />
  <path
     style="opacity:0.1;fill:#000000;fill-opacity:1;fill-rule:nonzero;stroke:none"
     d="M 13.8125 16 C 13.371574 16.05099 12.997 16.464595 13 16.9375 L 13 34.03125 C 13.000058 34.53115 13.434329 35 13.90625 35 L 36 35 C 36.472925 35 37 34.4999 37 34 L 37 19 C 37 18.5001 36.472925 18 36 18 L 27 18 L 27 17 C 26.9987 16.35213 26.55091 16 26 16 L 13.8125 16 z M 19 20.96875 L 31 20.96875 L 31 32.96875 L 20.5 33 L 19 31.5625 L 19 20.96875 z M 20 22 L 20 31 L 21 32 L 22 32 L 22 30 L 28 30 L 28 32 L 30 32 L 30 22 L 29 22 L 29 29 L 21 29 L 21 22 L 20 22 z M 22 23 L 22 24 L 28 24 L 28 23 L 22 23 z M 22 26 L 22 27 L 28 27 L 28 26 L 22 26 z M 23 31 L 23 32 L 25 32 L 25 31 L 23 31 z "
     id="path45-3" />
  <path
     style="fill:#ececec;fill-opacity:1;fill-rule:nonzero;stroke:none"
     d="M 12.8125 15 C 12.371574 15.05096 11.997 15.496148 12 15.96875 L 12 33.03125 C 12.000058 33.53083 12.434329 34 12.90625 34 L 35 34 C 35.472922 34 36 33.499579 36 33 L 36 18.03125 C 36 17.531671 35.472922 17.03125 35 17.03125 L 26 17.03125 L 26 16 C 25.9987 15.352546 25.550907 15 25 15 L 12.8125 15 z M 18 19.96875 L 30 19.96875 L 30 31.96875 L 19.5 32 L 18 30.5625 L 18 19.96875 z M 19 21 L 19 30 L 20 31 L 21 31 L 21 29 L 27 29 L 27 31 L 29 31 L 29 21 L 28 21 L 28 28 L 20 28 L 20 21 L 19 21 z M 21 22 L 21 23 L 27 23 L 27 22 L 21 22 z M 21 25 L 21 26 L 27 26 L 27 25 L 21 25 z M 22 30 L 22 31 L 24 31 L 24 30 L 22 30 z "
     id="path55" />
  <g
     id="g63">
    <path
       d="m 40.03 7.531 c 3.712 4.084 5.969 9.514 5.969 15.469 0 12.703 -10.297 23 -23 23 c -5.954 0 -11.384 -2.256 -15.469 -5.969 4.178 4.291 10.01 6.969 16.469 6.969 c 12.703 0 23 -10.298 23 -23 0 -6.462 -2.677 -12.291 -6.969 -16.469 z"
       opacity="0.1"
       id="path65" />
  </g>
</svg>

<svg xmlns="http://www.w3.org/2000/svg" viewBox="0 0 48 48">
 <defs>
  <linearGradient id="linearGradient3764" x1="1" x2="47" gradientUnits="userSpaceOnUse" gradientTransform="matrix(0,-1,1,0,-1.5e-6,47.999998)">
   <stop style="stop-color:#428ac2;stop-opacity:1"/>
   <stop offset="1" style="stop-color:#5295c7;stop-opacity:1"/>
  </linearGradient>
 </defs>
 <g>
  <path d="m 36.31 5 c 5.859 4.062 9.688 10.831 9.688 18.5 c 0 12.426 -10.07 22.5 -22.5 22.5 c -7.669 0 -14.438 -3.828 -18.5 -9.688 c 1.037 1.822 2.306 3.499 3.781 4.969 c 4.085 3.712 9.514 5.969 15.469 5.969 c 12.703 0 23 -10.298 23 -23 c 0 -5.954 -2.256 -11.384 -5.969 -15.469 c -1.469 -1.475 -3.147 -2.744 -4.969 -3.781 z m 4.969 3.781 c 3.854 4.113 6.219 9.637 6.219 15.719 c 0 12.703 -10.297 23 -23 23 c -6.081 0 -11.606 -2.364 -15.719 -6.219 c 4.16 4.144 9.883 6.719 16.219 6.719 c 12.703 0 23 -10.298 23 -23 c 0 -6.335 -2.575 -12.06 -6.719 -16.219 z" style="opacity:0.05"/>
  <path d="m 41.28 8.781 c 3.712 4.085 5.969 9.514 5.969 15.469 c 0 12.703 -10.297 23 -23 23 c -5.954 0 -11.384 -2.256 -15.469 -5.969 c 4.113 3.854 9.637 6.219 15.719 6.219 c 12.703 0 23 -10.298 23 -23 c 0 -6.081 -2.364 -11.606 -6.219 -15.719 z" style="opacity:0.1"/>
  <path d="m 31.25 2.375 c 8.615 3.154 14.75 11.417 14.75 21.13 c 0 12.426 -10.07 22.5 -22.5 22.5 c -9.708 0 -17.971 -6.135 -21.12 -14.75 a 23 23 0 0 0 44.875 -7 a 23 23 0 0 0 -16 -21.875 z" style="opacity:0.2"/>
 </g>
 <path d="m 13.813 16 c -0.441 0.051 -0.816 0.465 -0.813 0.938 l 0 17.09 c 0 0.5 0.434 0.969 0.906 0.969 l 22.09 0 c 0.473 0 1 -0.5 1 -1 l 0 -15 c 0 -0.5 -0.527 -1 -1 -1 l -9 0 0 -1 c 0 -0.648 -0.449 -1 -1 -1 z" style="fill:#000;opacity:0.1;fill-opacity:1;stroke:none;fill-rule:nonzero"/>
 <g>
  <path d="m 24 1 c 12.703 0 23 10.297 23 23 c 0 12.703 -10.297 23 -23 23 -12.703 0 -23 -10.297 -23 -23 0 -12.703 10.297 -23 23 -23 z" style="fill:url(#linearGradient3764);fill-opacity:1"/>
 </g>
 <path d="m 13.813 16 c -0.441 0.051 -0.816 0.465 -0.813 0.938 l 0 17.09 c 0 0.5 0.434 0.969 0.906 0.969 l 22.09 0 c 0.473 0 1 -0.5 1 -1 l 0 -15 c 0 -0.5 -0.527 -1 -1 -1 l -9 0 l 0 -1 c 0 -0.648 -0.449 -1 -1 -1 l -12.188 0 z m 5.188 4.969 l 12 0 l 0 12 l -10.5 0.031 l -1.5 -1.438 l 0 -10.594 z m 1 1.031 l 0 9 l 1 1 l 1 0 l 0 -2 l 6 0 l 0 2 l 2 0 l 0 -10 l -1 0 l 0 7 l -8 0 l 0 -7 l -1 0 z m 2 1 l 0 1 l 6 0 l 0 -1 l -6 0 z m 0 3 l 0 1 l 6 0 l 0 -1 l -6 0 z m 1 5 l 0 1 l 2 0 l 0 -1 l -2 0 z" style="fill:#000;opacity:0.1;fill-opacity:1;stroke:none;fill-rule:nonzero"/>
 <path d="m 12.813 15 c -0.441 0.051 -0.816 0.496 -0.813 0.969 l 0 17.06 c 0 0.5 0.434 0.969 0.906 0.969 l 22.09 0 c 0.473 0 1 -0.5 1 -1 l 0 -14.969 c 0 -0.5 -0.527 -1 -1 -1 l -9 0 l 0 -1.031 c 0 -0.647 -0.449 -1 -1 -1 l -12.188 0 z m 5.188 4.969 l 12 0 l 0 12 l -10.5 0.031 l -1.5 -1.438 l 0 -10.594 z m 1 1.031 l 0 9 l 1 1 l 1 0 l 0 -2 l 6 0 l 0 2 l 2 0 l 0 -10 l -1 0 l 0 7 l -8 0 l 0 -7 l -1 0 z m 2 1 l 0 1 l 6 0 l 0 -1 l -6 0 z m 0 3 l 0 1 l 6 0 l 0 -1 l -6 0 z m 1 5 l 0 1 l 2 0 l 0 -1 l -2 0 z" style="fill:#ececec;fill-opacity:1;stroke:none;fill-rule:nonzero"/>
 <g>
  <path d="m 40.03 7.531 c 3.712 4.084 5.969 9.514 5.969 15.469 0 12.703 -10.297 23 -23 23 c -5.954 0 -11.384 -2.256 -15.469 -5.969 4.178 4.291 10.01 6.969 16.469 6.969 c 12.703 0 23 -10.298 23 -23 0 -6.462 -2.677 -12.291 -6.969 -16.469 z" style="opacity:0.1"/>
 </g>
</svg>
